X:1
T:Go Down Moses
T:Go Down Moses
T:African-American Spiritual
T:Public Domain Courtesy of the Cyber Hymnal™
C:African-American Spiritual
Z:Public Domain
Z:Courtesy of the Cyber Hymnal™
%%score ( 1 2 ) ( 3 4 )
L:1/8
M:4/4
K:Bb
V:1 treble 
V:2 treble 
V:3 bass 
V:4 bass 
V:1
 D2 | B2 B2 A2 A2 | B2 B2 [B,G]4 | [B,D]2 [B,D]2 [C^F] [CF]3 | [B,G]6 D2 | B2 B2 A2 A2 | B2 B2 G4 | %7
w: 1.~When|Is- rael was in|E- gypt’s land,|Let My peo- ple|go, Op-|pressed so hard they|could not stand,|
w: 2.~Thus|saith the Lord, bold|Mo- ses said,|Let My peo- ple|go, If|not I’ll smite your|first born dead,|
w: 3.~No|more in bond- age|shall they toil,|Let My peo- ple|go, Let|them come out with|E- gypt’s spoil,|
 [B,D]2 [B,D]2 [C^F] [CF]3 | [B,G]8 ||"^Refrain" G2 z2 x8 | c2 z2 x8 | d4 [^Fd]3 [Fc] | %12
w: Let My peo- ple|go.||||
w: Let My peo- ple|go.|Go|down,|Mo- ses, Way|
w: Let My peo- ple|go.||||
 [Gd]2 [^Fd]2 (c/B/G- G2) | (BG) (G4 B2) | (GF) D2- [A,D]3 D | [G,B,D]2 [G,B,D]2 ^F F3 | [B,G]6 |] %17
w: |||||
w: down in E- * * *|gypt’s * land, *|Tell * old Phar- aoh,|To let My peo-|ple|
w: |||||
V:2
 D2 | B,4 C4 | B,4 x4 | x8 | x6 D2 | B,4 C4 | B,4 (D2 C2) | x8 | x8 || x2 G6 (B,2 B,2) | %10
 x2 c6 (E2 E2) | (D2 G2) x4 | x4 D4 | B,4 E4 | D4 x2 D x | x4 [A,C]4 | x6 |] %17
V:3
 D,2 | [G,,D,]4 [G,,E,]4 | [G,,D,]4 [G,,D,]4 | [D,G,]2 [D,G,]2 [D,A,] [D,A,]3 | [G,,G,]6 D,2 | %5
 [G,,D,]4 [G,,E,]4 | [G,,D,]4 G,4 | [D,G,]2 [D,G,]2 [D,A,] [D,A,]3 | [G,,G,]8 || %9
 G,2 (z2 [G,,D,]2 [G,,D,]2) x4 | C2 (z2 [C,G,]2 [C,G,]2) x4 | [B,,G,]2 [B,D]2 [A,C]3 [A,D] | %12
 [B,D]2 [A,D]2 B,4 | [E,G,]4 [C,G,]4 | G,4 [D,^F,]3 D, | D,2 D,2 D,2 D,2 | [G,,D,]6 |] %17
V:4
 D,2 | x8 | x8 | x8 | x6 D,2 | x8 | x4 (B,,2 E,2) | x8 | x8 || x2 G,6 x4 | x2 C6 x4 | x8 | %12
 x4 (G,2 F,2) | x8 | (B,,3 C, D,) x3 | D,,4 D,,4 | x6 |] %17

